Newaita-dark/apps/48/blueman.svg

<svg height="48pt" viewBox="0 0 48 48" width="48pt" xmlns="http://www.w3.org/2000/svg" xmlns:xlink="http://www.w3.org/1999/xlink"><linearGradient id="a"><stop offset="0" stop-opacity=".313725"/><stop offset=".222222" stop-opacity=".27451"/><stop offset="1" stop-opacity="0"/></linearGradient><radialGradient id="b" cx="450.90894" cy="189.57936" gradientTransform="matrix(.00000026 -.117199 -.210958 -.00000015 66.784728 95.392998)" gradientUnits="userSpaceOnUse" r="21.166656" xlink:href="#a"/><radialGradient id="c" cx="450.90894" cy="189.57936" gradientTransform="matrix(-.00000026 .117199 .210958 .00000015 -19.155181 -11.291222)" gradientUnits="userSpaceOnUse" r="21.166656" xlink:href="#a"/><radialGradient id="d" cx="450.90894" cy="189.57936" gradientTransform="matrix(-.00000026 -.117199 .210958 -.00000015 -19.155181 95.392998)" gradientUnits="userSpaceOnUse" r="21.166656" xlink:href="#a"/><radialGradient id="e" cx="450.90894" cy="189.57936" gradientTransform="matrix(.00000026 .117199 -.210958 .00000015 66.784725 -11.291223)" gradientUnits="userSpaceOnUse" r="21.166656" xlink:href="#a"/><linearGradient id="f" gradientTransform="matrix(.0200401 0 0 .093759 18.698079 20.158175)" gradientUnits="userSpaceOnUse" x1="255.32306" x2="255.32304" y1="233.5" y2="254.66666"><stop offset="0" stop-opacity=".27451"/><stop offset="1" stop-opacity="0"/></linearGradient><linearGradient id="g" gradientUnits="userSpaceOnUse" x1="23.814786" x2="23.814786" y1="42.0509015" y2="4.34415668747"><stop offset="0" stop-color="#3f51b5"/><stop offset="1" stop-color="#5c6bc0"/></linearGradient><linearGradient id="h" gradientUnits="userSpaceOnUse" x1="21.83022018747" x2="21.83022018747" y1="4.34415762506" y2="42.0509015"><stop offset="0" stop-color="#e0e0e0"/><stop offset="1" stop-color="#bdbdbd"/></linearGradient><path d="m27.289062 42.050781h3.96875v-1.984375h-3.96875zm0 0" fill="url(#b)"/><path d="m20.339844 42.050781h-3.96875v1.984375h3.96875zm0 0" fill="url(#c)"/><path d="m20.339844 42.050781h-3.96875v-1.984375h3.96875zm0 0" fill="url(#d)"/><path d="m27.289062 42.050781h3.96875v1.984375h-3.96875zm0 0" fill="url(#e)"/><path d="m20.339844 41.554688h6.949218v2.480468h-6.949218zm0 0" fill="url(#f)"/><path d="m23.816406 4.34375c6.574219 0 11.90625 5.332031 11.90625 11.90625v13.894531c0 6.574219-5.332031 11.90625-11.90625 11.90625-6.578125 0-11.910156-5.332031-11.910156-11.90625v-13.894531c0-6.574219 5.332031-11.90625 11.910156-11.90625zm0 0" fill="url(#g)"/><path d="m23.816406 4.34375c-6.597656 0-11.910156 5.3125-11.910156 11.90625v.496094c0-6.59375 5.3125-11.90625 11.910156-11.90625 6.59375 0 11.90625 5.3125 11.90625 11.90625v-.496094c0-6.59375-5.3125-11.90625-11.90625-11.90625zm0 0" fill="#fff" fill-opacity=".392157"/><path d="m11.90625 29.820312v.324219c0 6.59375 5.3125 11.90625 11.910156 11.90625 6.59375 0 11.90625-5.3125 11.90625-11.90625v-.324219c0 6.597657-5.3125 11.90625-11.90625 11.90625-6.597656 0-11.910156-5.308593-11.910156-11.90625zm0 0" fill-opacity=".235294"/><path d="m23.816406 4.203125c-6.671875 0-12.050781 5.375-12.050781 12.046875v13.894531c0 6.671875 5.378906 12.046875 12.050781 12.046875s12.046875-5.375 12.046875-12.046875v-13.894531c0-6.671875-5.375-12.046875-12.046875-12.046875zm0 .28125c6.519532 0 11.765625 5.246094 11.765625 11.765625v13.894531c0 6.519531-5.246093 11.765625-11.765625 11.765625-6.523437 0-11.769531-5.246094-11.769531-11.765625v-13.894531c0-6.519531 5.246094-11.765625 11.769531-11.765625zm0 0" fill="#212121"/><path d="m23.347656 10.785156c-.402344-.007812-.789062.144532-1.078125.425782-.285156.285156-.449219.667968-.449219 1.070312v7.039062l-3.441406-3.175781c-.390625-.375-.953125-.507812-1.46875-.351562-.519531.160156-.910156.585937-1.027344 1.113281-.113281.527344.0625 1.078125.464844 1.4375l5.257813 4.855469-5.257813 4.851562c-.402344.359375-.578125.910157-.464844 1.4375.117188.53125.507813.953125 1.027344 1.113281.515625.15625 1.078125.023438 1.46875-.351562l3.441406-3.171875v7.035156c0 .558594.3125 1.074219.8125 1.332031.5.253907 1.101563.210938 1.554688-.113281l6.949219-4.960937c.363281-.261719.59375-.675782.621093-1.125.03125-.449219-.144531-.890625-.476562-1.195313l-5.257812-4.851562 5.257812-4.855469c.332031-.304688.507812-.742188.476562-1.195312-.027343-.449219-.257812-.859376-.621093-1.125l-6.949219-4.960938c-.242188-.175781-.535156-.269531-.839844-.277344zm1.46875 4.40625 3.078125 2.199219-3.078125 2.84375zm0 10.96875 3.078125 2.84375-3.078125 2.199219zm0 0" fill="url(#h)"/><path d="m23.347656 10.785156c-.402344-.007812-.789062.144532-1.078125.425782-.285156.285156-.449219.667968-.449219 1.070312v.488281c0-.402343.164063-.789062.449219-1.070312.289063-.28125.675781-.433594 1.078125-.425781.304688.003906.597656.101562.839844.277343l6.949219 4.960938c.320312.230469.539062.582031.601562.976562.09375-.5625-.140625-1.128906-.601562-1.464843l-6.949219-4.960938c-.242188-.175781-.535156-.269531-.839844-.277344zm-6.058594 4.945313c-.429687.015625-.832031.21875-1.101562.550781-.273438.335938-.386719.769531-.316406 1.195312.113281-.703124.707031-1.230468 1.417968-1.257812.40625-.015625.796876.132812 1.089844.410156l3.441406 3.175782v-.484376l-3.441406-3.175781c-.292968-.28125-.683594-.429687-1.089844-.414062zm10.144532 2.085937-2.617188 2.417969v.488281l2.617188-2.417968.164062.117187.296875-.277344zm-6.234375 5.757813-4.851563 4.476562c-.382812.34375-.5625.855469-.476562 1.363281.054687-.339843.222656-.648437.476562-.875l4.851563-4.476562.144531.132812.261719-.246093zm5.230469 0-.40625.375.261718.246093.144532-.132812 4.851562 4.476562c.246094.226563.40625.527344.460938.855469.082031-.496093-.089844-1-.460938-1.34375zm1.007812 5.757812-2.621094 1.871094v.484375l2.621094-1.867188.160156.148438.296875-.214844zm0 0" fill="#fff" fill-opacity=".901961"/><path d="m24.816406 15.191406v.925782l2.511719 1.796874.566406-.523437zm-8.890625 2.496094c-.1875.566406-.019531 1.1875.421875 1.582031l4.757813 4.390625.5-.460937-5.257813-4.855469c-.195312-.175781-.34375-.402344-.421875-.65625zm15.761719.019531c-.078125.246094-.21875.464844-.40625.636719l-5.257812 4.855469.5.460937 4.757812-4.390625c.429688-.394531.585938-1.003906.40625-1.5625zm-6.871094 8.453125v.925782l2.515625 2.320312.5625-.402344zm-2.996094.917969-3.441406 3.171875c-.371094.355469-.898437.496094-1.398437.367188-.5-.125-.898438-.496094-1.054688-.988282-.210937.652344.046875 1.363282.625 1.730469.578125.363281 1.332031.289063 1.828125-.183594l3.441406-3.171875zm9.867188 2.535156c-.097656.304688-.292969.570313-.550781.757813l-6.949219 4.960937c-.453125.324219-1.054688.367188-1.554688.113281-.5-.257812-.8125-.773437-.8125-1.332031v.925781c0 .5625.3125 1.074219.8125 1.332032.5.253906 1.101563.210937 1.554688-.113282l6.949219-4.960937c.53125-.382813.753906-1.0625.550781-1.683594zm0 0" fill-opacity=".235294"/><path d="m249.017887-99.969318c-4.291257-.083326-8.415863 1.541519-11.498902 4.541233-3.041376 3.041376-4.791209 7.124319-4.791209 11.415576v75.076164l-36.704829-33.871765c-4.166268-3.999618-10.165695-5.41615-15.66517-3.749642-5.541138 1.70817-9.707407 6.249403-10.957287 11.873866-1.208218 5.624463.666603 11.498902 4.95786 15.331869l56.077978 51.786721-56.077978 51.745059c-4.291257 3.832967-6.166078 9.707406-4.95786 15.331869 1.24988 5.666126 5.416149 10.165696 10.957287 11.873866 5.499475 1.666508 11.498902.249977 15.66517-3.749642l36.704829-33.830102v75.034501c0 5.957764 3.333015 11.457239 8.665839 14.206977 5.332824 2.708074 11.748878 2.249785 16.58175-1.208218l74.117922-52.911614c3.87463-2.7914 6.332728-7.207645 6.624367-11.998854.333302-4.791209-1.541519-9.499093-5.082848-12.748783l-56.077978-51.745059 56.077978-51.786721c3.541329-3.249689 5.41615-7.915911 5.082848-12.748782-.291639-4.791209-2.749737-9.165792-6.624367-11.998855l-74.117922-52.911613c-2.583087-1.874821-5.707789-2.874726-8.957478-2.958051zm15.66517 46.995512 32.830199 23.456093-32.830199 30.330437zm0 116.988828 32.830199 30.330437-32.830199 23.456093zm0 0" fill="none" stroke="#212121" stroke-linecap="round" stroke-linejoin="round" stroke-width="3" transform="matrix(.093759 0 0 .093759 0 20.158175)"/></svg>

<?xml version="1.0" encoding="UTF-8"?>
<svg xmlns="http://www.w3.org/2000/svg" xmlns:xlink="http://www.w3.org/1999/xlink" width="48pt" height="48pt" viewBox="0 0 48 48" version="1.1">
<defs>
<radialGradient id="radial0" gradientUnits="userSpaceOnUse" cx="450.90894" cy="189.57936" fx="450.90894" fy="189.57936" r="21.166656" gradientTransform="matrix(0.000000261256,-0.117199,-0.210958,-0.000000152308,66.784728,95.392998)">
<stop offset="0" style="stop-color:rgb(0%,0%,0%);stop-opacity:0.313725;"/>
<stop offset="0.222222" style="stop-color:rgb(0%,0%,0%);stop-opacity:0.27451;"/>
<stop offset="1" style="stop-color:rgb(0%,0%,0%);stop-opacity:0;"/>
</radialGradient>
<radialGradient id="radial1" gradientUnits="userSpaceOnUse" cx="450.90894" cy="189.57936" fx="450.90894" fy="189.57936" r="21.166656" gradientTransform="matrix(-0.000000261256,0.117199,0.210958,0.000000152308,-19.155181,-11.291222)">
<stop offset="0" style="stop-color:rgb(0%,0%,0%);stop-opacity:0.313725;"/>
<stop offset="0.222222" style="stop-color:rgb(0%,0%,0%);stop-opacity:0.27451;"/>
<stop offset="1" style="stop-color:rgb(0%,0%,0%);stop-opacity:0;"/>
</radialGradient>
<radialGradient id="radial2" gradientUnits="userSpaceOnUse" cx="450.90894" cy="189.57936" fx="450.90894" fy="189.57936" r="21.166656" gradientTransform="matrix(-0.000000261256,-0.117199,0.210958,-0.000000152308,-19.155181,95.392998)">
<stop offset="0" style="stop-color:rgb(0%,0%,0%);stop-opacity:0.313725;"/>
<stop offset="0.222222" style="stop-color:rgb(0%,0%,0%);stop-opacity:0.27451;"/>
<stop offset="1" style="stop-color:rgb(0%,0%,0%);stop-opacity:0;"/>
</radialGradient>
<radialGradient id="radial3" gradientUnits="userSpaceOnUse" cx="450.90894" cy="189.57936" fx="450.90894" fy="189.57936" r="21.166656" gradientTransform="matrix(0.000000261256,0.117199,-0.210958,0.000000152308,66.784725,-11.291223)">
<stop offset="0" style="stop-color:rgb(0%,0%,0%);stop-opacity:0.313725;"/>
<stop offset="0.222222" style="stop-color:rgb(0%,0%,0%);stop-opacity:0.27451;"/>
<stop offset="1" style="stop-color:rgb(0%,0%,0%);stop-opacity:0;"/>
</radialGradient>
<linearGradient id="linear0" gradientUnits="userSpaceOnUse" x1="255.32306" y1="233.5" x2="255.32304" y2="254.66666" gradientTransform="matrix(0.0200401,0,0,0.093759,18.698079,20.158175)">
<stop offset="0" style="stop-color:rgb(0%,0%,0%);stop-opacity:0.27451;"/>
<stop offset="1" style="stop-color:rgb(0%,0%,0%);stop-opacity:0;"/>
</linearGradient>
<linearGradient id="linear1" gradientUnits="userSpaceOnUse" x1="254" y1="233.5" x2="254" y2="-168.66667" gradientTransform="matrix(0.093759,0,0,0.093759,0,20.158175)">
<stop offset="0" style="stop-color:rgb(24.705882%,31.764706%,70.980392%);stop-opacity:1;"/>
<stop offset="1" style="stop-color:rgb(36.078431%,41.960784%,75.294118%);stop-opacity:1;"/>
</linearGradient>
<linearGradient id="linear2" gradientUnits="userSpaceOnUse" x1="232.83333" y1="-168.66666" x2="232.83333" y2="233.5" gradientTransform="matrix(0.093759,0,0,0.093759,0,20.158175)">
<stop offset="0" style="stop-color:rgb(87.843137%,87.843137%,87.843137%);stop-opacity:1;"/>
<stop offset="1" style="stop-color:rgb(74.117647%,74.117647%,74.117647%);stop-opacity:1;"/>
</linearGradient>
</defs>
<g id="surface1">
<path style=" stroke:none;fill-rule:nonzero;fill:url(#radial0);" d="M 27.289062 42.050781 L 31.257812 42.050781 L 31.257812 40.066406 L 27.289062 40.066406 Z M 27.289062 42.050781 "/>
<path style=" stroke:none;fill-rule:nonzero;fill:url(#radial1);" d="M 20.339844 42.050781 L 16.371094 42.050781 L 16.371094 44.035156 L 20.339844 44.035156 Z M 20.339844 42.050781 "/>
<path style=" stroke:none;fill-rule:nonzero;fill:url(#radial2);" d="M 20.339844 42.050781 L 16.371094 42.050781 L 16.371094 40.066406 L 20.339844 40.066406 Z M 20.339844 42.050781 "/>
<path style=" stroke:none;fill-rule:nonzero;fill:url(#radial3);" d="M 27.289062 42.050781 L 31.257812 42.050781 L 31.257812 44.035156 L 27.289062 44.035156 Z M 27.289062 42.050781 "/>
<path style=" stroke:none;fill-rule:nonzero;fill:url(#linear0);" d="M 20.339844 41.554688 L 27.289062 41.554688 L 27.289062 44.035156 L 20.339844 44.035156 Z M 20.339844 41.554688 "/>
<path style=" stroke:none;fill-rule:nonzero;fill:url(#linear1);" d="M 23.816406 4.34375 C 30.390625 4.34375 35.722656 9.675781 35.722656 16.25 L 35.722656 30.144531 C 35.722656 36.71875 30.390625 42.050781 23.816406 42.050781 C 17.238281 42.050781 11.90625 36.71875 11.90625 30.144531 L 11.90625 16.25 C 11.90625 9.675781 17.238281 4.34375 23.816406 4.34375 Z M 23.816406 4.34375 "/>
<path style=" stroke:none;fill-rule:nonzero;fill:rgb(100%,100%,100%);fill-opacity:0.392157;" d="M 23.816406 4.34375 C 17.21875 4.34375 11.90625 9.65625 11.90625 16.25 L 11.90625 16.746094 C 11.90625 10.152344 17.21875 4.839844 23.816406 4.839844 C 30.410156 4.839844 35.722656 10.152344 35.722656 16.746094 L 35.722656 16.25 C 35.722656 9.65625 30.410156 4.34375 23.816406 4.34375 Z M 23.816406 4.34375 "/>
<path style=" stroke:none;fill-rule:nonzero;fill:rgb(0%,0%,0%);fill-opacity:0.235294;" d="M 11.90625 29.820312 L 11.90625 30.144531 C 11.90625 36.738281 17.21875 42.050781 23.816406 42.050781 C 30.410156 42.050781 35.722656 36.738281 35.722656 30.144531 L 35.722656 29.820312 C 35.722656 36.417969 30.410156 41.726562 23.816406 41.726562 C 17.21875 41.726562 11.90625 36.417969 11.90625 29.820312 Z M 11.90625 29.820312 "/>
<path style=" stroke:none;fill-rule:nonzero;fill:rgb(12.941176%,12.941176%,12.941176%);fill-opacity:1;" d="M 23.816406 4.203125 C 17.144531 4.203125 11.765625 9.578125 11.765625 16.25 L 11.765625 30.144531 C 11.765625 36.816406 17.144531 42.191406 23.816406 42.191406 C 30.488281 42.191406 35.863281 36.816406 35.863281 30.144531 L 35.863281 16.25 C 35.863281 9.578125 30.488281 4.203125 23.816406 4.203125 Z M 23.816406 4.484375 C 30.335938 4.484375 35.582031 9.730469 35.582031 16.25 L 35.582031 30.144531 C 35.582031 36.664062 30.335938 41.910156 23.816406 41.910156 C 17.292969 41.910156 12.046875 36.664062 12.046875 30.144531 L 12.046875 16.25 C 12.046875 9.730469 17.292969 4.484375 23.816406 4.484375 Z M 23.816406 4.484375 "/>
<path style=" stroke:none;fill-rule:nonzero;fill:url(#linear2);" d="M 23.347656 10.785156 C 22.945312 10.777344 22.558594 10.929688 22.269531 11.210938 C 21.984375 11.496094 21.820312 11.878906 21.820312 12.28125 L 21.820312 19.320312 L 18.378906 16.144531 C 17.988281 15.769531 17.425781 15.636719 16.910156 15.792969 C 16.390625 15.953125 16 16.378906 15.882812 16.90625 C 15.769531 17.433594 15.945312 17.984375 16.347656 18.34375 L 21.605469 23.199219 L 16.347656 28.050781 C 15.945312 28.410156 15.769531 28.960938 15.882812 29.488281 C 16 30.019531 16.390625 30.441406 16.910156 30.601562 C 17.425781 30.757812 17.988281 30.625 18.378906 30.25 L 21.820312 27.078125 L 21.820312 34.113281 C 21.820312 34.671875 22.132812 35.1875 22.632812 35.445312 C 23.132812 35.699219 23.734375 35.65625 24.1875 35.332031 L 31.136719 30.371094 C 31.5 30.109375 31.730469 29.695312 31.757812 29.246094 C 31.789062 28.796875 31.613281 28.355469 31.28125 28.050781 L 26.023438 23.199219 L 31.28125 18.34375 C 31.613281 18.039062 31.789062 17.601562 31.757812 17.148438 C 31.730469 16.699219 31.5 16.289062 31.136719 16.023438 L 24.1875 11.0625 C 23.945312 10.886719 23.652344 10.792969 23.347656 10.785156 Z M 24.816406 15.191406 L 27.894531 17.390625 L 24.816406 20.234375 Z M 24.816406 26.160156 L 27.894531 29.003906 L 24.816406 31.203125 Z M 24.816406 26.160156 "/>
<path style=" stroke:none;fill-rule:nonzero;fill:rgb(100%,100%,100%);fill-opacity:0.901961;" d="M 23.347656 10.785156 C 22.945312 10.777344 22.558594 10.929688 22.269531 11.210938 C 21.984375 11.496094 21.820312 11.878906 21.820312 12.28125 L 21.820312 12.769531 C 21.820312 12.367188 21.984375 11.980469 22.269531 11.699219 C 22.558594 11.417969 22.945312 11.265625 23.347656 11.273438 C 23.652344 11.277344 23.945312 11.375 24.1875 11.550781 L 31.136719 16.511719 C 31.457031 16.742188 31.675781 17.09375 31.738281 17.488281 C 31.832031 16.925781 31.597656 16.359375 31.136719 16.023438 L 24.1875 11.0625 C 23.945312 10.886719 23.652344 10.792969 23.347656 10.785156 Z M 17.289062 15.730469 C 16.859375 15.746094 16.457031 15.949219 16.1875 16.28125 C 15.914062 16.617188 15.800781 17.050781 15.871094 17.476562 C 15.984375 16.773438 16.578125 16.246094 17.289062 16.21875 C 17.695312 16.203125 18.085938 16.351562 18.378906 16.628906 L 21.820312 19.804688 L 21.820312 19.320312 L 18.378906 16.144531 C 18.085938 15.863281 17.695312 15.714844 17.289062 15.730469 Z M 27.433594 17.816406 L 24.816406 20.234375 L 24.816406 20.722656 L 27.433594 18.304688 L 27.597656 18.421875 L 27.894531 18.144531 Z M 21.199219 23.574219 L 16.347656 28.050781 C 15.964844 28.394531 15.785156 28.90625 15.871094 29.414062 C 15.925781 29.074219 16.09375 28.765625 16.347656 28.539062 L 21.199219 24.0625 L 21.34375 24.195312 L 21.605469 23.949219 Z M 26.429688 23.574219 L 26.023438 23.949219 L 26.285156 24.195312 L 26.429688 24.0625 L 31.28125 28.539062 C 31.527344 28.765625 31.6875 29.066406 31.742188 29.394531 C 31.824219 28.898438 31.652344 28.394531 31.28125 28.050781 Z M 27.4375 29.332031 L 24.816406 31.203125 L 24.816406 31.6875 L 27.4375 29.820312 L 27.597656 29.96875 L 27.894531 29.753906 Z M 27.4375 29.332031 "/>
<path style=" stroke:none;fill-rule:nonzero;fill:rgb(0%,0%,0%);fill-opacity:0.235294;" d="M 24.816406 15.191406 L 24.816406 16.117188 L 27.328125 17.914062 L 27.894531 17.390625 Z M 15.925781 17.6875 C 15.738281 18.253906 15.90625 18.875 16.347656 19.269531 L 21.105469 23.660156 L 21.605469 23.199219 L 16.347656 18.34375 C 16.152344 18.167969 16.003906 17.941406 15.925781 17.6875 Z M 31.6875 17.707031 C 31.609375 17.953125 31.46875 18.171875 31.28125 18.34375 L 26.023438 23.199219 L 26.523438 23.660156 L 31.28125 19.269531 C 31.710938 18.875 31.867188 18.265625 31.6875 17.707031 Z M 24.816406 26.160156 L 24.816406 27.085938 L 27.332031 29.40625 L 27.894531 29.003906 Z M 21.820312 27.078125 L 18.378906 30.25 C 18.007812 30.605469 17.480469 30.746094 16.980469 30.617188 C 16.480469 30.492188 16.082031 30.121094 15.925781 29.628906 C 15.714844 30.28125 15.972656 30.992188 16.550781 31.359375 C 17.128906 31.722656 17.882812 31.648438 18.378906 31.175781 L 21.820312 28.003906 Z M 31.6875 29.613281 C 31.589844 29.917969 31.394531 30.183594 31.136719 30.371094 L 24.1875 35.332031 C 23.734375 35.65625 23.132812 35.699219 22.632812 35.445312 C 22.132812 35.1875 21.820312 34.671875 21.820312 34.113281 L 21.820312 35.039062 C 21.820312 35.601562 22.132812 36.113281 22.632812 36.371094 C 23.132812 36.625 23.734375 36.582031 24.1875 36.257812 L 31.136719 31.296875 C 31.667969 30.914062 31.890625 30.234375 31.6875 29.613281 Z M 31.6875 29.613281 "/>
<path style="fill:none;stroke-width:3;stroke-linecap:round;stroke-linejoin:round;stroke:rgb(12.941176%,12.941176%,12.941176%);stroke-opacity:1;stroke-miterlimit:4;" d="M 249.017887 -99.969318 C 244.72663 -100.052644 240.602024 -98.427799 237.518985 -95.428085 C 234.477609 -92.386709 232.727776 -88.303766 232.727776 -84.012509 L 232.727776 -8.936345 L 196.022947 -42.80811 C 191.856679 -46.807728 185.857252 -48.22426 180.357777 -46.557752 C 174.816639 -44.849582 170.65037 -40.308349 169.40049 -34.683886 C 168.192272 -29.059423 170.067093 -23.184984 174.35835 -19.352017 L 230.436328 32.434704 L 174.35835 84.179763 C 170.067093 88.01273 168.192272 93.887169 169.40049 99.511632 C 170.65037 105.177758 174.816639 109.677328 180.357777 111.385498 C 185.857252 113.052006 191.856679 111.635475 196.022947 107.635856 L 232.727776 73.805754 L 232.727776 148.840255 C 232.727776 154.798019 236.060791 160.297494 241.393615 163.047232 C 246.726439 165.755306 253.142493 165.297017 257.975365 161.839014 L 332.093287 108.9274 C 335.967917 106.136 338.426015 101.719755 338.717654 96.928546 C 339.050956 92.137337 337.176135 87.429453 333.634806 84.179763 L 277.556828 32.434704 L 333.634806 -19.352017 C 337.176135 -22.601706 339.050956 -27.267928 338.717654 -32.100799 C 338.426015 -36.892008 335.967917 -41.266591 332.093287 -44.099654 L 257.975365 -97.011267 C 255.392278 -98.886088 252.267576 -99.885993 249.017887 -99.969318 Z M 264.683057 -52.973806 L 297.513256 -29.517713 L 264.683057 0.812724 Z M 264.683057 64.015022 L 297.513256 94.345459 L 264.683057 117.801552 Z M 264.683057 64.015022 " transform="matrix(0.093759,0,0,0.093759,0,20.158175)"/>
</g>
</svg>
